X:447
T:John Doherty's Mazurka
M:3/4
L:1/8
K:D
FG|"D"AF A2 dc|"G"BG B2 ef|"A"ge c2 Bc|"D"BA F2 FG|AF A2 dc|"G"BG B2 ef|"A7"ge cA Bc|"D"d4:|
fg|"D"af d2 Ad|"G"cB B2 ef|"A"ge c2 Bc|"D"BA F2 fg|"D"af d2 Ad|"G"cB B2 ef|"A7"ge cA Bc|"D"d4:|

